src/rawtherapee_mcp/templates/warm_portrait.pp3
[Version]
AppVersion=5.11
Version=351

[General]
ColorLabel=0
InTrash=false

[Exposure]
Auto=false
Clip=0.02
Compensation=0.2
Brightness=0
Contrast=10
Saturation=-5
Black=0
HighlightCompr=0
ShadowCompr=50

[White Balance]
Setting=Custom
Temperature=5800
Green=1.0
Equal=1.0

[Crop]
Enabled=false

[Resize]
Enabled=false

[Sharpening]
Enabled=true
Method=usm
Radius=0.50
Amount=150
Threshold=20;80;2000;1200;

[Color Management]
InputProfile=(camera)
WorkingProfile=ProPhoto
OutputProfile=RT_sRGB

[Directional Pyramid Denoising]
Enabled=true
Luma=10
Ldetail=50
Chroma=15
